X:16
T:Saw You My Father THO3.016
O:England;London
M:2/4
L:1/8
Z:vmp. Peter Dunk 2011.from a transcription by Fynn Titford-Mock 2006-9
B:Thompson's Compleat Collection of 200 Favourite Country Dances Vol. III.1765-72
Q:1/4=140
K:D
D>EF>G|A2A2|B2 g>e|dcTBA|d2 dc TcBTBA|A2 z2:|
|:A|F>EF>d|{G}F2 ED|E>DEF|G2 G>B|BAFA|AGFE|D3z/:|

